X: 20942
T: SAW YE JOHNNIE COMIN'
O: Old Scottish air.
%R: air, march
B: W. Hamilton "Universal Tune-Book" Vol. 2 Glasgow 1846 p.94 #2
S: http://s3-eu-west-1.amazonaws.com/itma.dl.printmaterial/book_pdfs/hamiltonvol2web.pdf
Z: 2016 John Chambers <jc:trillian.mit.edu>
M: 2/4
L: 1/16
K: F
% - - - - - - - - - - - - - - - - - - - - - - - - -
"pp repeat forte."\
c2 |\
F3F G2A2 | cA3 Af3 |\
F3F G2A2 | c2 A4 :: c2 |\
f3e d2c2 | d3c A2c2 |\
f3e d2^c2 | d2 A4 c2 |\
f3e d2c2 | d3e Hf2{gfef}ga |\
FF3 G2A2 | cA3 Af3 |\
FF3 G2A2 | c2 A4 :|
% - - - - - - - - - - - - - - - - - - - - - - - - -

%%sep 1 1 500
%%sep 1 1 500

